X:1
T:Alberta
M:4/4
L:1/8
K:C
 A,| C C- C4 CC| A,3 C C4| z6 z E| G G- G4 GG| E3 G G4-| G6 z G| A c- c4 A2|\
G-E E4 DC| G E- E4 D2|E-C C3 z CD| E G- G4 E2| D- C3- C D2| C-| C8|\
